X:1
T:Title
L:1/8
M:4/4
K:Eb
V:1 treble nm="Grand Piano"
V:1
 z4 z[Q:1/4=100] CEF | G2 c2 =B2 A2 | G4- GCDE | F2 A2 G2 _G2 | G4- GCEF | G2 c2 =B2 A2 | %6
 G4- Ge dc/=B/ | c2 G2 E2 D2 | C4- CEDC | G4- GDED | C4- CEDC | c4- c=BcA | G4- GGFG | %13
 A2 F2 D2 EF | G4- GDEF | E2 D2 C2 =B,2 | C6 z2 |] %17

